X:151 
T:Miss Monaghan's (reel)
T:SÃÂÃÂÃÂÃÂ©amus Ennis setting  
B:CRE3.093 (InÃÂÃÂÃÂÃÂ­on UÃÂÃÂÃÂÃÂ­ MhuimhneachÃÂÃÂÃÂÃÂ¡in)
F:file ID: cre.3/151miss_mon
N:1:Setting in the source occupies two full pages with 24 lines of 
music, a tribute to Breathnach's patience and to the inventiveness 
of Seamus Ennis, whose setting this is. I have shortened it to the usual 
32 bars, without repeats. 
N:2:Since the staccato triplets in the source (e.g.|(3DDD|) don't sound 
too good on playback, I have changed them to (e.g.|(3DED|. I have made other 
(slight) changes in the notation for the same reason.
R:reel
%Q:180
M:C
L:1/8
K:D
A|D3G FAAF|G2BG (3FGA Bc|dABG (3FGA Df|gefd ecAF|
"5"(3DED DA FAAF|G2BG (3FGA Bc|dg (3fga ecdB|AFGE FDDA|
"9"(3DED DA FAAF|G2BG (3FGA Bc|dABG (3FGA df|gefd ecAF|
"13"(3DED DA FAAF|G2BG FABc|dgfd ecdB|AFGE FDD ||
P:B part
g|"17"faag afdf|g2gf edBc|dedB AFAf|(3gfe df edBg|
"21"faag afdf|g2gf edBc|dg (3fga ecdB|AFGE FDDg|
"25"faag afdf|g2bg edBd|ggbg faaf|gfed cdeg|
"29"faag bgaf|(3gfe fd edBc|eg (3fga ecdB| AGFE D4 |]

%%%

